X: 359
T: Da canan
L: 1/8
M: 2/4
K: C
e2e d [I:setbarnb 1]| 
c e d c | 
A B A E | 
G4 | 
c B A A/ G/ | 
E c A G | 
E G C E | 
D4 | 
G E G A | 
c2c E | 
d c A c | 
G A E D | 
E> G E3/ G/ | 
c2c2 | 
A c A G/ A/ | 
c4 |]

@@@ Tune index: 9233
